styles/2/Numix/32/places/brown-folder-books.svg

<?xml version="1.0" encoding="UTF-8" standalone="no"?>
<svg
   xmlns:dc="http://purl.org/dc/elements/1.1/"
   xmlns:cc="http://creativecommons.org/ns#"
   xmlns:rdf="http://www.w3.org/1999/02/22-rdf-syntax-ns#"
   xmlns:svg="http://www.w3.org/2000/svg"
   xmlns="http://www.w3.org/2000/svg"
   xmlns:sodipodi="http://sodipodi.sourceforge.net/DTD/sodipodi-0.dtd"
   xmlns:inkscape="http://www.inkscape.org/namespaces/inkscape"
   width="32"
   height="32"
   viewBox="0 0 32 32"
   id="svg2"
   version="1.1"
   inkscape:version="0.91 r"
   sodipodi:docname="brown-folder-books.svg">
  <metadata
     id="metadata14">
    <rdf:RDF>
      <cc:Work
         rdf:about="">
        <dc:format>image/svg+xml</dc:format>
        <dc:type
           rdf:resource="http://purl.org/dc/dcmitype/StillImage" />
      </cc:Work>
    </rdf:RDF>
  </metadata>
  <defs
     id="defs12" />
  <sodipodi:namedview
     pagecolor="#ffffff"
     bordercolor="#666666"
     borderopacity="1"
     objecttolerance="10"
     gridtolerance="10"
     guidetolerance="10"
     inkscape:pageopacity="0"
     inkscape:pageshadow="2"
     inkscape:window-width="1366"
     inkscape:window-height="747"
     id="namedview10"
     showgrid="true"
     inkscape:zoom="8.0000004"
     inkscape:cx="7.9089323"
     inkscape:cy="20.846368"
     inkscape:window-x="0"
     inkscape:window-y="21"
     inkscape:window-maximized="1"
     inkscape:current-layer="svg2">
    <inkscape:grid
       type="xygrid"
       id="grid2991" />
  </sodipodi:namedview>
  <path
     style="font-size:medium;font-style:normal;font-variant:normal;font-weight:normal;font-stretch:normal;text-indent:0;text-align:start;text-decoration:none;line-height:normal;letter-spacing:normal;word-spacing:normal;text-transform:none;direction:ltr;block-progression:tb;writing-mode:lr-tb;text-anchor:start;baseline-shift:baseline;color:#000000;fill:#8d6e63;fill-opacity:1;fill-rule:nonzero;stroke:none;stroke-width:1;marker:none;visibility:visible;display:inline;overflow:visible;enable-background:accumulate;font-family:Sans;-inkscape-font-specification:Sans"
     d="M 4,4 C 3.5084,4 3,4.4731187 3,5 L 3,6 C 2.3333333,6 2.1666667,6 1.5,6 0.52083828,6 0,6.4940342 0,7.5 l 0,19 C 0,27.531461 0.52306868,28 1.5,28 l 28.84375,0 C 31.21572,28 32,27.376781 32,26.5 l 0,-17 C 32,8.5586771 31.574893,8 30.5,8 L 28,8 28,5 C 28,4.4731187 27.4916,4 27,4 z"
     id="path3004"
     inkscape:connector-curvature="0"
     sodipodi:nodetypes="ssccssssscccsss" />
  <path
     style="font-size:medium;font-style:normal;font-variant:normal;font-weight:normal;font-stretch:normal;text-indent:0;text-align:start;text-decoration:none;line-height:normal;letter-spacing:normal;word-spacing:normal;text-transform:none;direction:ltr;block-progression:tb;writing-mode:lr-tb;text-anchor:start;baseline-shift:baseline;color:#000000;fill:#000000;fill-opacity:0.32156863;fill-rule:nonzero;stroke:none;stroke-width:1;marker:none;visibility:visible;display:inline;overflow:visible;enable-background:accumulate;font-family:Sans;-inkscape-font-specification:Sans"
     d="M 4,4 C 3.5084,4 3,4.4731186 3,5 L 3,6 C 2.3131965,6 2.1164647,6 1.5,6 0.52083828,6 0,6.4829856 0,7.5 l 0,19 C 0,27.503839 0.50097159,28 1.5,28 l 28.84375,0 C 31.21572,28 32,27.376781 32,26.5 L 32,9.5517767 C 32,8.537794 31.580916,8 30.5,8 L 28,8 28,5 C 28,4.4731186 27.4916,4 27,4 z M 19,7 19,9 31,9 31,27 1,27 1,7 z"
     id="path3784"
     inkscape:connector-curvature="0"
     sodipodi:nodetypes="ssccssssscccsssccccccc" />
  <g
     transform="matrix(2.6574797,0,0,2.6574797,10.000001,-11.999998)"
     inkscape:label="Symbol"
     id="layer3"
     style="opacity:1;fill:#000000;fill-opacity:0.32156864">
    <path
       inkscape:connector-curvature="0"
       style="fill:#000000;fill-opacity:0.32156864;fill-rule:nonzero;stroke:none"
       d="m 2.6340743,13.546668 0,-3.01037 -0.7525928,10e-7 0,3.01037 z M 1.5051852,10.348057 -3.1968253e-7,9.2193549 l 0,3.0104641 L 1.5051852,13.358521 Z m 3.0103711,1.881762 0,-3.0104641 -1.5051856,1.1286551 0,3.010559 z M 4.2333338,9.0311124 C 3.386667,9.0311123 2.8222225,9.3133345 2.257778,9.7837051 1.6933334,9.3133345 1.1288889,9.0311123 0.28222213,9.0311124 l 1.59925937,1.1288886 0.7525928,0 z"
       id="path53-8"
       sodipodi:nodetypes="ccccccccccccccccccccc" />
  </g>
</svg>

<svg xmlns="http://www.w3.org/2000/svg" viewBox="0 0 32 32">
 <path d="m 4 4 c -0.492 0 -1 0.473 -1 1 l 0 1 c -0.667 0 -0.833 0 -1.5 0 -0.979 0 -1.5 0.494 -1.5 1.5 l 0 19 c 0 1.031 0.523 1.5 1.5 1.5 l 28.844 0 c 0.872 0 1.656 -0.623 1.656 -1.5 l 0 -17 c 0 -0.941 -0.425 -1.5 -1.5 -1.5 l -2.5 0 0 -3 c 0 -0.527 -0.508 -1 -1 -1 z" style="visibility:visible;fill:#8d6e63;fill-opacity:1;stroke:none;display:inline;color:#000;fill-rule:nonzero"/>
 <path d="m 4 4 c -0.492 0 -1 0.473 -1 1 l 0 1 c -0.687 0 -0.884 0 -1.5 0 -0.979 0 -1.5 0.483 -1.5 1.5 l 0 19 c 0 1 0.501 1.5 1.5 1.5 l 28.844 0 c 0.872 0 1.656 -0.623 1.656 -1.5 l 0 -16.948 c 0 -1.014 -0.419 -1.552 -1.5 -1.552 l -2.5 0 0 -3 c 0 -0.527 -0.508 -1 -1 -1 z m 15 3 0 2 12 0 0 18 -30 0 0 -20 z" style="visibility:visible;fill:#000;fill-opacity:0.322;stroke:none;display:inline;color:#000;fill-rule:nonzero"/>
 <g transform="matrix(2.6574797,0,0,2.6574797,10.000001,-11.999998)" style="fill:#000;opacity:1;fill-opacity:0.322">
  <path d="m 2.634 13.547 0 -3.01 -0.753 0 0 3.01 z m -1.129 -3.199 -1.505 -1.129 l 0 3.01 l 1.505 1.129 m 3.01 -1.129 0 -3.01 -1.505 1.129 0 3.01 z m -0.282 -3.199 c -0.847 0 -1.411 0.282 -1.976 0.753 -0.564 -0.47 -1.129 -0.753 -1.976 -0.753 l 1.599 1.129 0.753 0 z" style="fill:#000;fill-opacity:0.322;stroke:none;fill-rule:nonzero"/>
 </g>
</svg>
